src/icons/svg/ViewFile.svg

<!-- Generated by IcoMoon.io -->
<svg version="1.1" xmlns="http://www.w3.org/2000/svg" width="30" height="24" viewBox="0 0 30 24">
<title>view-file</title>
<path fill="#444" d="M27 0h-24c-1.65 0-2.985 1.35-2.985 3l-0.015 18c0 1.65 1.35 3 3 3h24c1.65 0 3-1.35 3-3v-18c0-1.65-1.35-3-3-3zM27 21h-6.75v-12h6.752l-0.002 12zM27.002 7.5h-6.752v-4.5h6.75l0.002 4.5zM18.75 7.5h-7.5v-4.502h7.5v4.502zM9.748 7.5h-6.745v1.5h6.745v11.998h-6.75v-18h6.75v4.502zM11.25 9h7.5v11.998h-7.5v-11.998z"></path>
</svg>

<svg width="30" height="24" viewBox="0 0 30 24" fill="none" xmlns="http://www.w3.org/2000/svg">
<path d="M27 0H3C1.35 0 0.015 1.35 0.015 3L0 21C0 22.65 1.35 24 3 24H27C28.65 24 30 22.65 30 21V3C30 1.35 28.65 0 27 0ZM27 21H20.25V9H27.002L27 21ZM27.002 7.5H20.25V3H27L27.002 7.5ZM18.75 7.5H11.25V2.998H18.75V7.5ZM9.748 7.5H3.003V9H9.748V20.998H2.998V2.998H9.748V7.5V7.5ZM11.25 9H18.75V20.998H11.25V9V9Z" fill="#1C2125"/>
</svg>
